X: 1
T: How 'Ya Gonna Keep 'Em Down On the Farm?  [G]
T: (After They've Seen Paree)
C: music: Walter Donaldson
C: words: Sam M Lewis, Joe Young
R: march
Z: 2018 John Chambers <jc:trillian.mit.edu>
M: 2/4
L: 1/8
K: G
%%continueall 1
z4 | z4 "^Verse"[|\
"G"G2 E2 | D E3 | F2 E2 | D E3 | "D7"F2 E2 | D2 F2 | "Em"E4- | "D7"Ez z2 ||
"Gm"G2 E2 | D2 E2 | "D"FG AC- | "D7"C3 ^G | "B7"A2 F2 | E2 F2 | "D7"GA BD- | D4 ||
"G"G2 E2 | D E3 | F2 E2 | D E2 ^E | "D7"F2 =E2 | D2 F2 | "Em"E4- | "(D7)"E2 E2 ||
"G"D2 D2 | D2 D2 | D2 BA- | AF ^EF | "A7"A2 G2 | F2 E2 | "D7"D4- | Dz z2 |]
"^Chorus"|:\
"G"GD EB, | "Bdim"D E3 | "D7"F^E FD- | D3 z | "G"F^E FD- | D2 F2 | "D7"E4- | Ez z2 ||
"G"GD EB, | "Bb7"D E2 ^E | "D"F2 G2 | "E/G#"^G2 A2 | "A7"B^A B=A- | "D"A3 A | "D7"B^A B=A- |
"G"Az z2 || "Gdim"GD EB, | "D7"D E2 ^E | F2 =E2 | D3 z | F2 E2 | D c3 | "B"B4- | B2 z2 ||
"G7"zG AG | BG AG | B G2 G- | Gz z2 | "C"zG AG | BG AG | "D7"B G2 G- | Gz z2 ||
"G"GD EB, | "Bdim"D E3 | "D7"F^E FD- | D3 z | "Am7"cB cB- | "D7"B2 A2 | "G"G4- | Gz "(D7)"z2 :|

%%sep 2 1 500
%%sep 1 1 500

